!!!COM: Richard Wagner
!!!CNT: Deutsch
!!!TXO: Deutsch
!!!OTL: Stehe Still
!!!LYR: Wesendonk
!!!OPR: 5 Gedichte für eine Frauenstimme (Wesendonk Lieder)
!!!OPS: WWV 91 - no opus info available
!!!ONM: No. 2
!!!ENC: Ben Fuhrman
!!!YOR: IMSLP, no information given on the edition
!!!YOR: http://imslp.org/wiki/5_Gedichte_f%C3%BCr_eine_Frauenstimme,_WWV_91_%28Wagner,_Richard%29
!!!ODT: 1858
!!NB: Only vocal melody encoded.
!!NB: First instance of melodic material only encoded.
!!created: 2/10/10 1:50PM
!!proofed and posted: 2/10/10 1:52PM
**kern	**silbe
*clef G2	*
*k[b-e-a-]	*
*M6/8	*
*MM[Bewegt]	*
=3	=3
{8.g	{Sau-
16e-	-sen
8c	des,
8.a-	brau-
16f	sen-
8d	des
=4	=4
4bn	Rad
8g	der
4cc}	Zeit,}
8r	.
=5	=5
{4dd	{Mes-
8bn	-ser
4a-	du
8f	der
=6	=6
4ff	E-
8dd	-wig-
4b-}	-keit;}
8r	.
=7	=7
{8.b-	{leuch-
16g-	-ten-
8e-	-de
8.cc-	Spha2-
16a-	-ren
8f	im
=8	=8
4dd	wei-
8b-	-ten
4ee-}	All,}
8r	.
=9	=9
{8dd-	{die
8cc	ihr
8b-	um-
4a-	-ringt
8g	den
=10	=10
4gg	Wel-
8een	-ten-
4cc}	-ball;}
8r	.
=11	=11
{4.cc	{ur-
8.dd-	-e-
16b-	-wi-
8g	-ge
=12	=12
4ff	Scho2p-
8een	-fung,
8.ff	hal-
16cc	-te
8cc	doch
=13	=13
4gg-}	ein,}
16r	.
{16ff	{ge-
4ee-	-nug
8dd-	des
=14	=14
4cc	Wer-
8bn	-dens,
[4.ddn	lass
=15	=15
4.dd]	|
4.g	mich
=16	=16
2.een}	sein!}
=17	=17
2.r	.
=18	=18
{8.cc#	{Hal-
16b-	-te
8gn	an
4.dd	dich,
=19	=19
8.dd	zeu-
16b-	-gen-
8g	-de
4en}	Kraft,}
8r	.
=20	=20
{4f	{Ur-
8dd	-ge-
8.dd	-dan-
16bn	-ke,
8g	der
=21	=21
4a-	e-
8ee-	-wig
4f#}	schafft!}
8r	.
=22	=22
{8.g	{Hem-
16e-	-met
8c	den
4an	A-
8d	-tem,
=23	=23
8.b-	stil-
16g	-let
8e-	den
4cc}	Drang,}
8r	.
=24	=24
{8.dd-	{schwei-
16dd-	-get
8dd-	nur
8dd-	ei-
8ee-	-ne
8ff	Se-
=25	=25
4ff	-kun-
8g	-de
4g}	lang!}
8r	.
=26	=26
{8.a-	{Schwel-
16f	-len-
8d-	-de
4b-	Pul-
8e-	-se,
=27	=27
8.cc	fes-
16an	-selt
8f	den
4ddn}	Schlag;}
8r	.
=28	=28
{8.ee-	{en-
16ff	-de,
8ff#	des
4gg	Wol-
8ee-	-lens
=29	=29
[4.cc	ew'
4cc]	|
8bn	-ger
=30	=30
4.dd}	Tag!}
4r	.
8r	.
=31	=31
4r	.
8r	.
{4g	{dass
8g	in
=32	=32
[4.b-	se-
4b-]	|
8cc#	-lig
=33	=33
4.cc#	su2-
4dd	-ssem
8een	Ver-
=34	=34
2.een	-ges-
=35	=35
4an}	-sen}
8r	.
{4.a-	{ich
=36	=36
4.bn	mo2g'
4cc	al-
8cc#	-le
=37	=37
4.dd	Won-
4een	-nen
8ff	er-
=38	=38
2.ff	-mes-
=39	=39
4bn}	-sen!}
8r	.
{4.g	{Wenn
=40	=40
([2.a-	Aug'
=41	=41
4.a-]	|
4.g	in
=42	=42
4.f	Au-
4.dd-	-ge
=43	=43
[4.cc	won-
4cc]	|
8b-	-nig
=44	=44
2.a-	trin-
=45	=45
4.g)}	-ken,}
4r	.
8r	.
=46	=46
{([2.g-	{See-
=47	=47
4.g-]	|
4.gn)	-le
=48	=48
[2.a-	ganz
=49	=49
4.a-]	|
4.an	in
=50	=50
[2.b-	See-
=51	=51
4.b-]	|
4f	-le
8f	ver-
=52	=52
2.a-	-sin-
=53	=53
4g-}	-ken;}
8r	.
4r	.
8r	.
=54	=54
{4.g-	{We-
4a-	-sen
8b-	in
=55	=55
4.cc-	We-
4dd-	-sen
8ee-	sich
=56	=56
*k[]	*
[4.ee	wie-
4ee]	|
8b	-der
=57	=57
4.g#	fin-
8f#}	-det,}
8r	.
{8e	{und
=58	=58
[4.f	al-
4f]	|
8g	-les
=59	=59
4.a-	Hof-
4b-	-fens
8cc	|
=60	=60
4.ddn	En-
4a	-de
8f#	sich
=61	=61
4.e	ku2n-
8d}	-det;}
8r	.
{8d	{die
=62	=62
2.e-	Lip-
=63	=63
4.e-	-pe
4r	.
8g	ver-
=64	=64
2.g}	-stummt}
=65	=65
4r	.
8r	.
{4.g	{in
=66	=66
2.g	stau-
=67	=67
[4.an	-nen
4an]	|
8an	dem
=68	=68
2.b-	Schwei
=69	=69
4c#}	-gen,}
8r	.
{4e	{kei-
8e	-nen
=70	=70
2.a	Wunsch
=71	=71
2.g	mehr
=72	=72
[4.f	will
4f]	|
8e	das
=73	=73
[4.d	Inn'
4d]	|
8c#	-re
=74	=74
4.f	zeu-
4e}	-gen:}
8r	.
=75	=75
4r	.
8r	.
{4.a	{er-
=76	=76
*MM[Langsam]	*
[4.a	-kennt
4a]	|
8a	der
=77	=77
[4.dd	Mensch
4dd]	|
8dd	des
=78	=78
[2.dd	Ew'
=79	=79
4.dd]	|
(4a	-gen
8b)	|
=80	=80
4.cc	Spur,
4.cc	und
=81	=81
4.dd	lo2s't
4.ee	dein
=82	=82
[2.ee	Ra2t-
=83	=83
4.ee]	|
4.dd	-sel,
=84	=84
2.cc	heil'-
=85	=85
4.b	-ge
4.b	Na-
=86	=86
2.cc}	-tur!}
==	==
*-	*-
